src/22/actions/snap-page.svg

<svg xmlns="http://www.w3.org/2000/svg" viewBox="0 0 22 22"><path d="M4 3v16h10l4-4V3H4zm1 1h12v10h-4v4H5V4z" fill="currentColor" color="#5d656b"/></svg>

<svg xmlns="http://www.w3.org/2000/svg" viewBox="0 0 22 22">
  <defs id="defs3051">
    <style type="text/css" id="current-color-scheme">
      .ColorScheme-Text {
        color:#5d656b;
      }
      </style>
  </defs>
 <path 
     style="fill:currentColor;fill-opacity:1;stroke:none" 
     d="M 4 3 L 4 19 L 14 19 L 18 15 L 18 3 L 4 3 z M 5 4 L 17 4 L 17 14 L 13 14 L 13 18 L 5 18 L 5 4 z "
	 class="ColorScheme-Text"
     />
</svg>
